!!!COM: Gioseffo Zarlino
!!!OPR: Le istitutioni harmoniche
!!!OTL: Soggetto in the second manner, canon at the unison, after a minim, CF above.
!!!PPR: Francesco Senese
!!!PDT: 1573
!!!PPP: Venice
!!!ONB: Reprint ed., New York: Broude Bros., 1965, p. 306.
**kern	**kern	**kern
*conseq	*guida	*CF
*k[]	*k[]	*k[]
*M4/4	*M4/4	*M4/4
=1	=1	=1
2r	1C	1G
[2C	.	.
=2	=2	=2
2C]	2AA	1A
2AA	4E	.
.	4D	.
=3	=3	=3
4E	4C	{1G
4D	4BB	.
4C	2C	.
4BB	.	.
=4	=4	=4
2C	2FF	1F}
2FF	2C	.
=5	=5	=5
2C	4E	1G
.	4D	.
4E	4C	.
4D	4BB	.
=6	=6	=6
4C	2AA	{1A
4BB	.	.
2AA	[2E	.
=7	=7	=7
2.E	4E]	1G}
.	4D	.
.	4C	.
4D	4BB	.
=8	=8	=8
4C	2AA	1c
4BB	.	.
2AA	2F	.
=9	=9	=9
2F	4D	1d
.	4E	.
4D	4F	.
4E	4G	.
=10	=10	=10
4F	2A	1c
4G	.	.
2A	4AA	.
.	4BB	.
=11	=11	=11
4AA	4C	1c
4BB	4D	.
4C	[2E	.
4D	.	.
=12	=12	=12
2.E	4E]	1G
.	4D	.
.	4C	.
4D	4BB	.
=13	=13	=13
4C	2AA	1A
4BB	.	.
2AA	[2A	.
=14	=14	=14
2.A	4A]	1c
.	4G	.
.	4F	.
4G	4E	.
=15	=15	=15
4F	2D	1d
4E	.	.
2D	[2F	.
=16	=16	=16
2.F	4F]	1c
.	4G	.
.	2A	.
4G	.	.
=17	=17	=17
2A	2D	1d
2D	2A	.
=18	=18	=18
2A	2r	1e
2r	2A	.
=19	=19	=19
2A	2D	1d
2D	[2A	.
=20	=20	=20
2.A	4A]	1c
.	4G	.
.	4F	.
4G	4E	.
=21	=21	=21
4F	2D	{1d
4E	.	.
2D	2A	.
=22	=22	=22
2A	2.AA	1e}
[2AA	.	.
.	4BB	.
=23	=23	=23
4AA]	4C	{1c
4BB	4D	.
4C	4E	.
4D	4F	.
=24	=24	=24
4E	2G	1B}
4F	.	.
2G	2E	.
=25	=25	=25
2E	4AA	{1A
.	4BB	.
4AA	4C	.
4BB	4D	.
=26	=26	=26
4C	2E	1G}
4D	.	.
2E	2C	.
=27	=27	=27
2C	2AA	{1c
2AA	2A	.
=28	=28	=28
2A	2D	1d}
2D	[2B-	.
=29	=29	=29
1B-	2B-]	1G
.	2r	.
=30	=30	=30
2r	2F	1A
2F	4E	.
.	4D	.
=31	=31	=31
4E	4C	1c
4D	4D	.
4C	4E	.
4D	4F	.
=32	=32	=32
4E	4G	{1B
4F	4F	.
4G	4E	.
4F	4D	.
=33	=33	=33
4E	2C	1c}
4D	.	.
2C	4FF	.
.	4GG	.
=34	=34	=34
4FF	4AA	{1A
4GG	4BB	.
4AA	4C	.
4BB	4D	.
=35	=35	=35
4C	2E	1G}
4D	.	.
2E	2C	.
=36	=36	=36
2C	2FF	1F
2FF	[2F	.
=37	=37	=37
2.F	4F]	{1A
.	4E	.
.	2D	.
4E	.	.
=38	=38	=38
2D	2GG	1B-}
2GG	2D	.
=39	=39	=39
2D	2F	1A
2F	2D	.
=40	=40	=40
2D	4GG	{1G
.	4AA	.
4GG	4BB-	.
4AA	4C	.
=41	=41	=41
4BB-	1D	1F}
4C	.	.
[2D	.	.
=42	=42	=42
2D]	2GG	1G
2GG	4G	.
.	4F	.
=43	=43	=43
4G	4E	[1G
4F	4D	.
4E	2C	.
4D	.	.
=44	=44	=44
2C	2G	1G_
2G	2E	.
=45	=45	=45
1E	1C	1G]
==	==	==
*-	*-	*-
!!!CDT: 1517/3/22-1590/2/14
!!!CNT: Italia
!!!ODT: <1573//
!!!YEP: David Huron and Denis Collins
!!!YEN: Canada
!!!AIN: vox; ?
!!!AST: polyphony
!!!RDT: 1995 July 3
!!!YED: 1995 August 31
!!!AFR: cantus firmus canon
!!!AMT: simple quadruple
!!!EEV: 1.0
